X:729
T:Shingly Beach 
C:Joe Buchanan's Scottish Tome - Page 511.0
I:511 0
Z:Carl Allison
C:Tom Anderson
R:Reel
L:1/8
M:C
K:G
D2 | G4 c4 | Bd cA F2 D2 | G2 (Bd) E2 (Ac) | D2 (FA) C2 FA |
G4 c4 | B2 AG A2 D2 | G2 B2 E2 A2 D2 (GF) G3 :|
d2 (cB) c2 f2 | g2 (dB) c2 d2 | B2 d2 A2 c2 | c2 (AG) A2 c2 |
d2 (cB) c2 f2 | g2 (dB) c2 d2 | cB AG E2 A2 | D2 (GF) G3 e |
d2 (cB) c2 f2 | g2 (dB) c2 d2 | B2 d2 A2 c2 | B2 (AG) A2 D2 |
G4 c4 | Bd cA F2 D2 | G2 B2 E2 A2 | D2 (GF) G3 |]
%%newpage
W:2nd Fiddle
%%vskip 0
D2 | G4 (G2 F2) | GB AF D2 C2 | B,4 C4 | D4 A,4 |
B,4 (G2 F2) | G2 D2 F2 C2 | B,4 C4 | D2 D2 G2 :|
B2 ((AG)) A2 d2 | d2 (BG) A2 A2 | G2 F2 E2 E2 | D2 (CB,) C2 D2 |
B2 ((AG)) A2 d2 | d2 BG FE DF | G4 C4 | D2 F2 G3 c |
B2 ((AG)) A2 (dc) | (BA) G2 A2 A2 | G2 F2 E2 E2 | D2 FE D2 C2 |
B,4 (G2 F2) | GB AF D2 C2 | B,4 C4 | D2 (GF) G3 |]

